img/bitwarden.svg

<svg width="300" height="300" viewBox="0 0 300 300" fill="none" xmlns="http://www.w3.org/2000/svg">
<g clip-path="url(#clip0_68_61)">
<path d="M300 253.125C300 279.023 279.023 300 253.125 300H46.875C20.9766 300 0 279.023 0 253.125V46.875C0 20.9766 20.9766 0 46.875 0H253.125C279.023 0 300 20.9766 300 46.875V253.125Z" fill="#175DDC"/>
<path d="M243.105 37.6758C241.201 35.7715 238.945 34.834 236.367 34.834H63.6328C61.0254 34.834 58.7988 35.7715 56.8945 37.6758C54.9902 39.5801 54.0527 41.8359 54.0527 44.4141V159.58C54.0527 168.164 55.7227 176.689 59.0625 185.156C62.4023 193.594 66.5625 201.094 71.5137 207.656C76.4648 214.189 82.3535 220.576 89.209 226.787C96.0645 232.998 102.393 238.125 108.164 242.227C113.965 246.328 120 250.195 126.299 253.857C132.598 257.52 137.08 259.98 139.717 261.27C142.354 262.559 144.492 263.584 146.074 264.258C147.275 264.844 148.564 265.166 149.971 265.166C151.377 265.166 152.666 264.873 153.867 264.258C155.479 263.555 157.588 262.559 160.254 261.27C162.891 259.98 167.373 257.49 173.672 253.857C179.971 250.195 186.006 246.328 191.807 242.227C197.607 238.125 203.936 232.969 210.791 226.787C217.646 220.576 223.535 214.219 228.486 207.656C233.438 201.094 237.568 193.623 240.938 185.156C244.277 176.719 245.947 168.193 245.947 159.58V44.4434C245.977 41.8359 245.01 39.5801 243.105 37.6758ZM220.84 160.664C220.84 202.354 150 238.271 150 238.271V59.502H220.84C220.84 59.502 220.84 118.975 220.84 160.664Z" fill="white"/>
</g>
<defs>
<clipPath id="clip0_68_61">
<rect width="300" height="300" fill="white"/>
</clipPath>
</defs>
</svg>

<svg xmlns="http://www.w3.org/2000/svg" width="300" height="300" fill="none"><g clip-path="url(#a)"><path fill="#175DDC" d="M300 253.125C300 279.023 279.023 300 253.125 300H46.875C20.977 300 0 279.023 0 253.125V46.875C0 20.977 20.977 0 46.875 0h206.25C279.023 0 300 20.977 300 46.875z"/><path fill="#fff" d="M243.105 37.676c-1.904-1.904-4.16-2.842-6.738-2.842H63.633c-2.608 0-4.834.938-6.739 2.842-1.904 1.904-2.841 4.16-2.841 6.738V159.58q0 12.876 5.01 25.576c3.34 8.438 7.5 15.938 12.45 22.5 4.952 6.533 10.84 12.92 17.696 19.131 6.855 6.211 13.184 11.338 18.955 15.44a243 243 0 0 0 18.135 11.63c6.299 3.663 10.781 6.123 13.418 7.413 2.637 1.289 4.775 2.314 6.357 2.988a8.76 8.76 0 0 0 3.897.908c1.406 0 2.695-.293 3.896-.908 1.612-.703 3.721-1.699 6.387-2.988 2.637-1.29 7.119-3.78 13.418-7.413a243 243 0 0 0 18.135-11.63c5.8-4.102 12.129-9.258 18.984-15.44 6.855-6.211 12.744-12.568 17.695-19.131 4.952-6.562 9.082-14.033 12.452-22.5q5.009-12.656 5.009-25.576V44.443c.03-2.607-.937-4.863-2.842-6.767M220.84 160.664c0 41.69-70.84 77.607-70.84 77.607V59.502h70.84z"/></g><defs><clipPath id="a"><path fill="#fff" d="M0 0h300v300H0z"/></clipPath></defs></svg>
